X:395
T:Egan's Polka
M:2/4
L:1/8
K:D
fA/A/ BA | fA/A/ BA | d2 e>f | ed BA | 
fA/A/ BA | fA/A/ BA | d2 e>f | ed d>e :| 
fa fe | ed BA | d2 e>f | ed BA | 
fa fe | ed BA | d2 e>f | ed d>e :| 

